X:1
T:NINETEEN HUNDRED.
T:NINETEEN HUNDRED.
T:FANNY HASKELL.
T:1870
T:1870
T:1870
C:FANNY HASKELL.
Z:1870
%%score 1 { 2 | 3 }
L:1/8
Q:1/4=114
M:4/4
K:A
V:1 treble nm="Voice"
V:2 treble nm="Piano"
V:3 bass 
V:1
"^Moderato con anima." z2 | z8 | z8 | z8 | z8 | z8 | z8 | z8 | z6 |][K:A] EE | E2 A2 G2 A2 | %11
w: |||||||||Would you|like to see the|
w: |||||||||We *|know your O- cean|
w: |||||||||Tis *|true your O- ceans|
 FF B4 F2 | G2 e2 ^d2 e2 | cc z2 z z EE | E2 A2 G2 A2 | FF B4 c2 | B2 A2 G2 F2 | EE z2 z2 E2 | %18
w: fu- * ture, Just|fif- ty years from|now * We will|lift the veil of|na- * ture And|show what man can|do * For|
w: tel- e- graph, Seems|won- der- ful to|you * We *|do not boast but|'tis not half! The|wonders- ders we can|show * We|
w: now are tied, With|one grand ral to-|gether * But *|yet it takes a|week to ride, From|one un- to the|oth- er You|
 E2 A2 G2 A2 | FF B4 F2 | G2 e2 ^d2 e2 | c6 E2 | E2 A2 G2 A2 | FF B4 FF | G3 G F2 E2 | A6 | %26
w: style in dress and|talk- * ing, in|deed there is no|end And|as for style in|walk- * ing We can|beat the Gre- cian|Bend,|
w: cross the oc cean|in a day With|out the aid of|ship And|then re- turn with|out de- lay Tis *|but a plea- sure|trip.|
w: learn from us; A|few more brains, Would|save you all that|time For|now we ride in|Steam * Ballons And *|leave the care be-|hind.|
[K:A][M:2/4]"^CHORUS." e2 c>c | d>d F>F | G>G F>E | A>c e2 | e2 c>c | d>d F>F | G>G F>E | A4 || %34
w: Oh yes you|lack the grace of|half a cen- tu-|ry to come|Cant say we|like your taste, Per-|haps it might suit|some.|
w: ||||||||
w: ||||||||
 z4 | z4 | z4 | z4 | z4 | z4 | z4 | z4 |] %42
w: ||||||||
w: ||||||||
w: ||||||||
V:2
 EE | E2 A2 G2 A2 | F2 !>!B4 F2 | G2 e2 ^d2 e2 | c6 EE | E2 A2 G2 A2 | F2 B4 A2 | G3 G F2 E2 | %8
 [CA]6 |][K:A] z2 | z2 [CEA]2 [CEA]2 [CA]2 | z z [DFB]2 [DFB]2 [DFB]2 | z2 [DEGB]2 z2 [DEB]2 | %13
 z z [CEA]2 [CEA]2 [CEA]2 | z2 [CEA]2 [CEA]2 [CEA]2 | z z [DFB]2 [DFB]2 [DFB]2 | %16
 z2 [B,^DFA]2 [B,DFA]2 [B,DFA]2 | z2 [G,B,^DE]2 [A,CE]2 [B,=DE]2 | z2 [CEA]2 [CEA]2 [CEA]2 | %19
 z2 [DFB]2 [DFB]2 [DFB]2 | z2 [DEGB]2 z2 [DEGB]2 | z2 [CEA]2 [CEA]2 [CEA]2 | %22
 z2 [CEA]2 [CEA]2 [CEA]2 | z2 [DFB]2 [DFB]2 [^DFAB]2 | z2 [B,DEG]2 [B,DEG]2 [B,DEG]2 | [CEA]6 | %26
[K:A][M:2/4] [EAce]2 [EAce]2 | [DFBd]2 [DFBd]2 | z [DEGB] z [DEGB] | [Cc]>[Dd] [ce]2 | %30
 [Ece]2 [EAce]2 | [DFBd]2 [DFBd]2 | z [DEGB] z [DEGB] | [CEA]4 ||!f! e2 c2 | (d/d/d) F2 | %36
 (G/G/G) F>E | A>c e2 | e2 c2 | (d/d/d) F2 | (G/G/G) F>E | [CA]4 |] %42
V:3
 z2 | [A,,A,]2 [E,A,C]2 [E,A,C]2 [E,A,C]2 | D,2 [F,D]2 [F,D]2 [F,D]2 | %3
 E,2 [G,B,D]2 [G,B,D]2 [G,B,D]2 | A,,2 [E,A,C]2 [E,A,C]2 [E,A,C]2 | %5
 [A,,A,]2 [E,A,C]2 [E,A,C]2 [E,C]2 | D,2 [F,D]2 [F,D]2 [F,A,B,^D]2 | %7
 E,2 [G,B,D]2 [G,B,D]2 [G,B,D]2 | A,2 E,2 A,,2 |][K:A] z2 | [A,,A,]4 z4 | [D,,D,]4 z4 | %12
 [E,,E,]2 z2 [E,,E,]2 z2 | [A,,A,]2 z2 z4 | [A,,A,]4 z4 | [D,,D,]4 z4 | [B,,,B,,]4 z4 | %17
 ([E,,E,]6 [E,,E,]2) | [A,,A,]4 z4 | [D,,D,]4 z4 | [E,,E,]2 z2 [E,,E,]2 z2 | [A,,A,]2 z2 z4 | %22
 [A,,A,]4 z4 | [D,,D,]2 z2 z z [B,,,B,,]2 | [E,,E,]2 z2 z2 z2 | [A,,A,]6 | %26
[K:A][M:2/4] [A,,A,]2 [A,,A,]2 | [D,,D,]2 [D,,D,]2 | [E,,E,] z [E,,E,] z | A,,A, [A,,A,][E,A,=C] | %30
 [A,,A,]2 [A,,A,]2 | [D,,D,]2 [D,,D,]2 | [E,,E,] z [E,,E,] z | [A,,A,]4 || [A,,A,]2 [F,A,D]2 | %35
 E,2 [F,A,D]2 | A,2 [A,C]2 | [A,,A,]2 [A,C]2 | [A,,A,]2 [E,A,C]2 | D,2 [F,A,D]2 | E,2 [G,B,D]2 | %41
 [A,,E,A,]4 |] %42

